X:1

T:Road to Durham

R:jig

C:From Altan, The Red Crow

M:6/8

Z:transcribed by Gerry Strong

L:1/8

Q:98

K:D

FAA ABd|BAG AGE|~G3 ~B3|AGA E2 D|FAA ABd|BAG AGE|~D3 F2 A|GEA D3:|

|FAA ABc|ded ~B3|~G3 ~B3|AGA E2 D|FAA ABc|ded AGE|~D3 F2 A|GEA D3|

|FAA ABc|ded ~B3|~G3 ~B3|AGA E2 D|A2 D ABc|ded AGE|~D3 F2 A|GEA D3|

                       

ROAD TO GARRISON, THE.  AKA and see “The Godfather,” “Mauice Lennon’s [2].” Irish, Reel. The original title of fiddler Maurice Lennon’s composition.

 

ROAD TO GLENFINNAN, THE. Scottish, Reel. E Minor. Standard. AA’BB’CCDD. Composed by Neil Campbell (MacBeat). Martin (Ceol na Fidhle), vol. 4, 1991; pg. 8.

                       

ROAD TO GLOUNTANE, THE. AKA- “Road to Glauntaune.” AKA – “Cuz Teahan’s [2].” Irish, Fling (4/4 time) or Highland. A Major. Standard. AABB. The Highland called “Road to Glountane” was composed in 1964 by Terry “Cuz” Teahan, originally from County Kerry, who lived in Boston, Mass., for many years. The tune has also been rendered as a “slow reel” and as a “barn dance.” Glountane was the home of Sliabh Luachra fiddle master Padraig O’Keeffe. The melody appears in Teahan’s self-composed collection The Road to Glountane, wherein he said it was his favourite tune in the book. Miller (Fiddler’s Throne), 2004; No. 307, pg. 181. Songer (The Portland Collection, vol. 2), 2005; pg. 169. Taylor (Where’s the Crack?), 1989; pg. 32. RCA 61490, Chieftains – “The Celtic Harp” (appears as “Kerry Fling”). Enda Scahill.

See also listing at:

Alan Ng’s Irishtune.info

